src/resources/mandatory/M050.svg

<svg height="264.567" width="264.568" xmlns="http://www.w3.org/2000/svg" xmlns:xlink="http://www.w3.org/1999/xlink"><clipPath id="a"><path d="m78.886 471.68h228.24v228.241h-228.24z"/></clipPath><g clip-path="url(#a)" fill-rule="evenodd" transform="matrix(1.33333 0 0 -1.33333 -125.057 913.35)"><path d="m0 0c54.79 0 99.213 44.438 99.213 99.177 0 54.81-44.423 99.248-99.213 99.248s-99.213-44.438-99.213-99.248c0-54.739 44.423-99.177 99.213-99.177" fill="#005387" transform="translate(193.006 486.588)"/><g fill="#ecece7"><path d="m0 0h-125.319l1.231-1.457 1.277-1.428 1.306-1.413 1.337-1.366h115.001l1.337 1.366 1.308 1.413 1.276 1.428z" transform="translate(255.672 533.954)"/><path d="m0 0-.744.03-.729.076-.73.137-.714.197-.699.244-.683.303-.654.35-.638.394-.593.441-.562.471-.517.531-.486.562-.441.592-.395.638-.35.653-.303.684-.244.698-.182.714-.136.728-.092.746-.03.728v12.757l.03.41.092.395.136.379.198.349.243.334.288.273.32.244.349.197.38.137.395.09.41.032.395-.032.396-.09.379-.137.366-.197.318-.244.289-.273.243-.334.198-.349.137-.379.091-.395.015-.41v-12.757l.03-.471.076-.47.137-.456.182-.441.228-.425.274-.38.319-.364.365-.319.38-.274.425-.227.441-.183.456-.136.471-.076.47-.03h31.183l.47.03.472.076.471.136.44.183.41.227.396.274.349.319.32.364.273.38.228.425.182.441.137.456.076.47.03.471v12.757l.031.41.076.395.151.379.197.349.229.334.288.273.335.244.35.197.38.137.394.09.396.032.41-.032.395-.09.38-.137.349-.197.335-.244.273-.273.243-.334.198-.349.136-.379.092-.395.03-.41v-12.757l-.03-.728-.076-.746-.137-.728-.198-.714-.243-.698-.304-.684-.334-.653-.395-.638-.441-.592-.486-.562-.532-.531-.562-.471-.593-.441-.623-.394-.669-.35-.668-.303-.699-.244-.729-.197-.73-.137-.729-.076-.744-.03z" transform="translate(187.473 536.794)"/><path d="m0 0h-14.907l8.996-8.397h-9.026l-12.81 11.936 12.81 11.936h9.026l-8.996-8.398h14.907z" transform="translate(144.226 577.873)"/><path d="m0 0-4.968 26.804-12.02-14.366-.319-.334-.35-.304-.38-.274-.41-.227-.426-.183-21.046-7.836-.486-.152-.501-.091-.502-.045-.501.015-.502.076-.486.136-.471.183-.456.243-.41.273-.395.334-.335.38-.303.395-.259.44-.197.471-.152.486-.091.486-.046.516.015.501.076.501.137.486.182.471.243.456.274.41.334.395.38.334.395.303.441.259.471.197 19.922 7.426 13.645 16.295.365.38.395.334.425.288.472.228.486.182.501.122 20.302 3.766.456.061.47.015.472-.03.455-.091.442-.122.44-.182 20.362-9.461.441-.243.426-.304.379-.334.35-.38.304-.41.243-.455.197-.471.153-.486.076-.501.03-.516v-22.461l-.016-.501-.09-.501-.137-.487-.197-.47-.245-.441-.288-.41-.349-.379-.38-.335-.41-.303-.441-.243-.471-.197-.487-.137-.501-.076-.502-.031-.501.031-.502.076-.486.137-.471.197-.44.243-.41.303-.38.335-.335.379-.304.41-.243.441-.183.47-.151.487-.076.501-.03.501v19.575l-14.831 6.91 5.683-30.722.075-.471.016-.471v-27.699l7.294-26.728.106-.517.061-.546.016-.532-.062-.547-.106-.531-.167-.501-.213-.501-.274-.471-.318-.44-.35-.396-.411-.364-.425-.318-.47-.274-.502-.228-.502-.166-.532-.123-.532-.045-.547-.015-.531.06-.532.107-.517.167-.502.213-.455.273-.441.319-.41.349-.365.409-.319.426-.273.471-.213.501-.183.501-7.461 27.396-.106.456-.061.441-.015.47v25.179l-.167-.486-.198-.471-.243-.455-.304-.41-.334-.395-.365-.35-.41-.319-.425-.272-22.08-12.529v-25.392l-.03-.547-.076-.531-.152-.517-.183-.501-.243-.486-.304-.455-.334-.425-.38-.38-.425-.334-.456-.304-.471-.243-.517-.182-.517-.152-.531-.076-.547-.03-.532.03-.532.076-.532.152-.502.182-.47.243-.457.304-.425.334-.38.38-.334.425-.304.455-.243.486-.198.501-.136.517-.076.531-.031.547v28.383l.031.547.076.547.152.516.182.516.258.472.289.455.35.425.394.38.426.349.456.289z" transform="translate(181.41 607.03)"/><path d="m0 0-.03.713-.076.699-.137.699-.198.683-.243.668-.288.638-.35.623-.395.592-.44.563-.487.515-.516.486-.563.425-.592.395-.608.35-.654.304-.653.242-.684.198-.699.137-.714.075-.699.031-.714-.031-.699-.075-.699-.137-.684-.198-.669-.242-.638-.304-.623-.35-.592-.395-.548-.425-.531-.486-.472-.515-.44-.563-.395-.592-.35-.623-.289-.638-.258-.668-.182-.683-.137-.699-.091-.699-.03-.713.03-.699.091-.714.137-.698.182-.683.258-.653.289-.654.35-.622.395-.577.44-.562.472-.516.531-.486.548-.441.592-.395.623-.349.638-.288.669-.259.684-.182.699-.136.699-.091.714-.031.699.031.714.091.699.136.684.182.653.259.654.288.608.349.592.395.563.441.516.486.487.516.44.562.395.577.35.622.288.654.243.653.198.683.137.698.076.714z" transform="translate(191.622 657.328)"/></g></g></svg>

<?xml version="1.0" encoding="UTF-8" standalone="no"?>
<svg
   height="264.56601"
   width="264.56735"
   version="1.1"
   id="svg8"
   xmlns="http://www.w3.org/2000/svg"
   xmlns:svg="http://www.w3.org/2000/svg">
  <defs
     id="defs8" />
  <clipPath
     id="a">
    <path
       d="m 78.886,471.68 h 228.24 V 699.921 H 78.886 Z"
       id="path1" />
  </clipPath>
  <g
     clip-path="url(#a)"
     fill-rule="evenodd"
     transform="matrix(1.33333,0,0,-1.33333,-125.05702,913.34838)"
     id="g8">
    <path
       d="m 0,0 c 54.79,0 99.213,44.438 99.213,99.177 0,54.81 -44.423,99.248 -99.213,99.248 -54.79,0 -99.213,-44.438 -99.213,-99.248 C -99.213,44.438 -54.79,0 0,0"
       fill="#005387"
       transform="translate(193.006,486.588)"
       id="path2" />
    <g
       fill="#ecece7"
       id="g7">
      <path
         d="m 0,0 h -125.319 l 1.231,-1.457 1.277,-1.428 1.306,-1.413 1.337,-1.366 H -5.167 l 1.337,1.366 1.308,1.413 1.276,1.428 z"
         transform="translate(255.672,533.954)"
         id="path3" />
      <path
         d="m 0,0 -0.744,0.03 -0.729,0.076 -0.73,0.137 -0.714,0.197 -0.699,0.244 -0.683,0.303 -0.654,0.35 -0.638,0.394 -0.593,0.441 -0.562,0.471 -0.517,0.531 -0.486,0.562 -0.441,0.592 -0.395,0.638 -0.35,0.653 -0.303,0.684 -0.244,0.698 -0.182,0.714 -0.136,0.728 -0.092,0.746 -0.03,0.728 v 12.757 l 0.03,0.41 0.092,0.395 0.136,0.379 0.198,0.349 0.243,0.334 0.288,0.273 0.32,0.244 0.349,0.197 0.38,0.137 0.395,0.09 0.41,0.032 0.395,-0.032 0.396,-0.09 0.379,-0.137 0.366,-0.197 0.318,-0.244 0.289,-0.273 0.243,-0.334 0.198,-0.349 0.137,-0.379 0.091,-0.395 0.015,-0.41 V 9.917 L -4.224,9.446 -4.148,8.976 -4.011,8.52 -3.829,8.079 -3.601,7.654 -3.327,7.274 -3.008,6.91 -2.643,6.591 -2.263,6.317 -1.838,6.09 -1.397,5.907 -0.941,5.771 -0.47,5.695 0,5.665 h 31.183 l 0.47,0.03 0.472,0.076 0.471,0.136 0.44,0.183 0.41,0.227 0.396,0.274 0.349,0.319 0.32,0.364 0.273,0.38 0.228,0.425 0.182,0.441 0.137,0.456 0.076,0.47 0.03,0.471 v 12.757 l 0.031,0.41 0.076,0.395 0.151,0.379 0.197,0.349 0.229,0.334 0.288,0.273 0.335,0.244 0.35,0.197 0.38,0.137 0.394,0.09 0.396,0.032 0.41,-0.032 0.395,-0.09 0.38,-0.137 0.349,-0.197 0.335,-0.244 0.273,-0.273 0.243,-0.334 0.198,-0.349 0.136,-0.379 0.092,-0.395 0.03,-0.41 V 9.917 L 41.075,9.189 40.999,8.443 40.862,7.715 40.664,7.001 40.421,6.303 40.117,5.619 39.783,4.966 39.388,4.328 38.947,3.736 38.461,3.174 37.929,2.643 37.367,2.172 36.774,1.731 36.151,1.337 35.482,0.987 34.814,0.684 34.115,0.44 33.386,0.243 32.656,0.106 31.927,0.03 31.183,0 Z"
         transform="translate(187.473,536.794)"
         id="path4" />
      <path
         d="m 0,0 h -14.907 l 8.996,-8.397 h -9.026 l -12.81,11.936 12.81,11.936 h 9.026 L -14.907,7.077 H 0 Z"
         transform="translate(144.226,577.873)"
         id="path5" />
      <path
         d="m 0,0 -4.968,26.804 -12.02,-14.366 -0.319,-0.334 -0.35,-0.304 -0.38,-0.274 -0.41,-0.227 -0.426,-0.183 -21.046,-7.836 -0.486,-0.152 -0.501,-0.091 -0.502,-0.045 -0.501,0.015 -0.502,0.076 -0.486,0.136 -0.471,0.183 -0.456,0.243 -0.41,0.273 -0.395,0.334 -0.335,0.38 -0.303,0.395 -0.259,0.44 -0.197,0.471 -0.152,0.486 -0.091,0.486 -0.046,0.516 0.015,0.501 0.076,0.501 0.137,0.486 0.182,0.471 0.243,0.456 0.274,0.41 0.334,0.395 0.38,0.334 0.395,0.303 0.441,0.259 0.471,0.197 19.922,7.426 13.645,16.295 0.365,0.38 0.395,0.334 0.425,0.288 0.472,0.228 0.486,0.182 0.501,0.122 20.302,3.766 0.456,0.061 0.47,0.015 0.472,-0.03 0.455,-0.091 0.442,-0.122 0.44,-0.182 20.362,-9.461 0.441,-0.243 0.426,-0.304 0.379,-0.334 0.35,-0.38 0.304,-0.41 0.243,-0.455 0.197,-0.471 0.153,-0.486 0.076,-0.501 0.03,-0.516 V 4.389 L 39.129,3.888 39.039,3.387 38.902,2.9 38.705,2.43 38.46,1.989 38.172,1.579 37.823,1.2 37.443,0.865 37.033,0.562 36.592,0.319 36.121,0.122 l -0.487,-0.137 -0.501,-0.076 -0.502,-0.031 -0.501,0.031 -0.502,0.076 -0.486,0.137 -0.471,0.197 -0.44,0.243 -0.41,0.303 -0.38,0.335 -0.335,0.379 -0.304,0.41 -0.243,0.441 -0.183,0.47 -0.151,0.487 -0.076,0.501 -0.03,0.501 v 19.575 l -14.831,6.91 5.683,-30.722 0.075,-0.471 0.016,-0.471 v -27.699 l 7.294,-26.728 0.106,-0.517 0.061,-0.546 0.016,-0.532 -0.062,-0.547 -0.106,-0.531 -0.167,-0.501 -0.213,-0.501 -0.274,-0.471 -0.318,-0.44 -0.35,-0.396 -0.411,-0.364 -0.425,-0.318 -0.47,-0.274 -0.502,-0.228 -0.502,-0.166 -0.532,-0.123 -0.532,-0.045 -0.547,-0.015 -0.531,0.06 -0.532,0.107 -0.517,0.167 -0.502,0.213 -0.455,0.273 -0.441,0.319 -0.41,0.349 -0.365,0.409 -0.319,0.426 -0.273,0.471 -0.213,0.501 -0.183,0.501 -7.461,27.396 -0.106,0.456 -0.061,0.441 -0.015,0.47 V -3.994 L 10.577,-4.48 10.379,-4.951 10.136,-5.406 9.832,-5.816 9.498,-6.211 9.133,-6.561 8.723,-6.88 8.298,-7.152 -13.782,-19.681 v -25.392 l -0.03,-0.547 -0.076,-0.531 -0.152,-0.517 -0.183,-0.501 -0.243,-0.486 -0.304,-0.455 -0.334,-0.425 -0.38,-0.38 -0.425,-0.334 -0.456,-0.304 -0.471,-0.243 -0.517,-0.182 -0.517,-0.152 -0.531,-0.076 -0.547,-0.03 -0.532,0.03 -0.532,0.076 -0.532,0.152 -0.502,0.182 -0.47,0.243 -0.457,0.304 -0.425,0.334 -0.38,0.38 -0.334,0.425 -0.304,0.455 -0.243,0.486 -0.198,0.501 -0.136,0.517 -0.076,0.531 -0.031,0.547 v 28.383 l 0.031,0.547 0.076,0.547 0.152,0.516 0.182,0.516 0.258,0.472 0.289,0.455 0.35,0.425 0.394,0.38 0.426,0.349 0.456,0.289 z"
         transform="translate(181.41,607.03)"
         id="path6" />
      <path
         d="M 0,0 -0.03,0.713 -0.106,1.412 -0.243,2.111 -0.441,2.794 -0.684,3.462 -0.972,4.1 -1.322,4.723 -1.717,5.315 -2.157,5.878 -2.644,6.393 -3.16,6.879 -3.723,7.304 -4.315,7.699 -4.923,8.049 -5.577,8.353 -6.23,8.595 -6.914,8.793 -7.613,8.93 -8.327,9.005 -9.026,9.036 -9.74,9.005 -10.439,8.93 -11.138,8.793 -11.822,8.595 -12.491,8.353 -13.129,8.049 -13.752,7.699 -14.344,7.304 -14.892,6.879 -15.423,6.393 -15.895,5.878 -16.335,5.315 -16.73,4.723 -17.08,4.1 -17.369,3.462 -17.627,2.794 -17.809,2.111 -17.946,1.412 -18.037,0.713 -18.067,0 l 0.03,-0.699 0.091,-0.714 0.137,-0.698 0.182,-0.683 0.258,-0.653 0.289,-0.654 0.35,-0.622 0.395,-0.577 0.44,-0.562 0.472,-0.516 0.531,-0.486 0.548,-0.441 0.592,-0.395 0.623,-0.349 0.638,-0.288 0.669,-0.259 0.684,-0.182 0.699,-0.136 0.699,-0.091 0.714,-0.031 0.699,0.031 0.714,0.091 0.699,0.136 0.684,0.182 0.653,0.259 0.654,0.288 0.608,0.349 0.592,0.395 0.563,0.441 0.516,0.486 0.487,0.516 0.44,0.562 0.395,0.577 0.35,0.622 0.288,0.654 0.243,0.653 0.198,0.683 0.137,0.698 0.076,0.714 z"
         transform="translate(191.622,657.328)"
         id="path7" />
    </g>
  </g>
</svg>
